X:1
T: The Maids of Ballinacarty
C:
R:Jig
Q:180
K:D
M:6/8
L:1/16
(3ABc|d2e2d2 c2A2G2|F4D2 D2F2D2|E4c2 c2B2c2|d2e2d2 c2A2G2|ABc2d2 c2A2G2|F4D2 D2F2D2|E4A2 A2B2G2|F4D2 D4(3ABc|
d2e2d2 c2A2G2|F4D2 D2F2D2|E4c2 c2B2c2|d2e2d2 c2A2G2|ABc2d2 c2A2G2|F4D2 D2F2D2|E4A2 A2B2G2|F4D2 D4FG|
A4d2 d2c2d2|f4d2 d2c2d2|e4c2 c2B2c2|e4c2 c2B2c2|e4f2 g2f2g2|a2b2a2 a4g2|f2e2d2 e2f2g2|f4d2 d4FG|
A4d2 d2c2d2|f4d2 d2c2d2|e4c2 c2B2c2|e4c2 c2B2c2|e4f2 g2f2g2|a2b2a2 a4g2|f2e2d2 e2f2g2|f4d2 d4||
